X:244
T:Monaghan Twig
Z: id:dc-reel-224
M:C
L:1/8
K:A Mixolydian
ed|cAAG Aced|cAAG E2ed|cAAG Aced|BAGB d2:|!
ed|cdef gfed|cdef e3d|cdef gfge|dBGB d2ed|!
cded cded|cAA2 cdef|gfge dfed|BAGB d2|]!

